icons-rebrand/svg/private-circle-filled.svg

<svg width="32" height="32" viewBox="0 0 32 32" fill="none" xmlns="http://www.w3.org/2000/svg">
<path fill-rule="evenodd" clip-rule="evenodd" d="M8.5 4.775C10.72 3.2917 13.33 2.49999 16 2.5C19.5792 2.50397 23.0107 3.92756 25.5416 6.45844C28.0724 8.98932 29.496 12.4208 29.5 16C29.5 18.3323 28.8957 20.6248 27.7461 22.6541C26.5965 24.6835 24.9408 26.3803 22.9403 27.5793C20.9398 28.7784 18.6628 29.4387 16.3312 29.4959C13.9996 29.5531 11.6929 29.0053 9.63603 27.9058C7.57913 26.8064 5.84215 25.1928 4.59439 23.2223C3.34664 21.2518 2.63066 18.9917 2.51625 16.6622C2.40185 14.3327 2.8929 12.0133 3.94157 9.93003C4.99024 7.84677 6.56073 6.07073 8.5 4.775ZM14.018 11.741C14.078 10.773 14.487 9.861 15.169 9.173C15.6339 8.70766 16.2063 8.36414 16.8357 8.17287C17.465 7.98159 18.1318 7.94846 18.777 8.07641C19.4222 8.20436 20.0258 8.48945 20.5345 8.90641C21.0432 9.32338 21.4413 9.85936 21.6934 10.4669C21.9455 11.0744 22.0439 11.7347 21.9799 12.3894C21.9158 13.044 21.6914 13.6727 21.3263 14.2199C20.9613 14.7671 20.4669 15.2158 19.8871 15.5263C19.3072 15.8368 18.6598 15.9995 18.002 16H18C17.458 16 16.922 15.889 16.424 15.674L14.22 17.984L15.413 19.174C15.5991 19.3596 15.7468 19.5801 15.8476 19.8228C15.9484 20.0655 16.0004 20.3258 16.0006 20.5886C16.0008 20.8514 15.9491 21.1117 15.8487 21.3546C15.7482 21.5974 15.6008 21.8181 15.415 22.004L14.005 23.414C13.6301 23.7887 13.1219 23.9993 12.5919 23.9997C12.0619 24 11.5534 23.7901 11.178 23.416L9.295 21.538C9.10727 21.3507 9.00159 21.0966 9.00122 20.8314C9.00084 20.5662 9.1058 20.3118 9.293 20.124L12.097 17.311L14.847 14.43C14.2536 13.6636 13.9593 12.7075 14.019 11.74L14.018 11.741ZM11.414 20.828L12.589 22L14 20.59L12.823 19.416L11.415 20.828H11.414ZM18.766 13.848C19.0706 13.7228 19.3395 13.5241 19.5487 13.2697C19.758 13.0154 19.901 12.7132 19.965 12.3901C20.0291 12.067 20.0122 11.7331 19.9159 11.4182C19.8196 11.1032 19.6468 10.817 19.413 10.585H19.412C19.1793 10.3537 18.8932 10.1832 18.5789 10.0887C18.2647 9.99417 17.9321 9.9785 17.6103 10.0431C17.2886 10.1076 16.9877 10.2504 16.7343 10.4588C16.4809 10.6673 16.2827 10.9349 16.1572 11.2381C16.0318 11.5413 15.9829 11.8708 16.015 12.1973C16.0471 12.5239 16.1591 12.8375 16.3411 13.1105C16.5232 13.3835 16.7697 13.6075 17.0588 13.7626C17.348 13.9177 17.6709 13.9993 17.999 14H18C18.262 14 18.522 13.949 18.765 13.848H18.766Z" fill="#0F0F0F"/>
</svg>

<svg id="Layer_1" data-name="Layer 1" xmlns="http://www.w3.org/2000/svg" viewBox="0 0 32 32"><defs><style>.cls-1{fill:#0f0f0f;fill-rule:evenodd;}</style></defs><path class="cls-1" d="M25.542,6.458A13.488,13.488,0,1,0,29.5,16,13.52,13.52,0,0,0,25.542,6.458ZM21.98,12.389A4,4,0,0,1,18,16h0a3.975,3.975,0,0,1-1.576-.326l-2.2,2.31,1.193,1.19a2.007,2.007,0,0,1,.435.649A2,2,0,0,1,15.415,22l-1.41,1.41a2,2,0,0,1-2.827,0L9.3,21.538a1,1,0,0,1,0-1.414l2.8-2.813,2.75-2.881a3.991,3.991,0,0,1-.828-2.69h0a3.995,3.995,0,1,1,7.962.648Z"/><polygon class="cls-1" points="11.415 20.828 11.414 20.828 12.589 22 14 20.59 12.823 19.416 11.415 20.828"/><path class="cls-1" d="M19.413,10.585h0A2,2,0,1,0,18,14h0a1.992,1.992,0,0,0,.765-.152h0a2,2,0,0,0,.647-3.263Z"/></svg>
